public/flags/VU.svg

<svg fill="none" height="53" viewBox="0 0 61 53" width="61" xmlns="http://www.w3.org/2000/svg" xmlns:xlink="http://www.w3.org/1999/xlink"><filter id="a" color-interpolation-filters="sRGB" filterUnits="userSpaceOnUse" height="17" width="59" x="1" y="28.5"><feFlood flood-opacity="0" result="BackgroundImageFix"/><feColorMatrix in="SourceAlpha" type="matrix" values="0 0 0 0 0 0 0 0 0 0 0 0 0 0 0 0 0 0 127 0"/><feOffset/><feColorMatrix type="matrix" values="0 0 0 0 0 0 0 0 0 0 0 0 0 0 0 0 0 0 0.06 0"/><feBlend in2="BackgroundImageFix" mode="normal" result="effect1_dropShadow"/><feBlend in="SourceGraphic" in2="effect1_dropShadow" mode="normal" result="shape"/></filter><filter id="b" color-interpolation-filters="sRGB" filterUnits="userSpaceOnUse" height="17" width="59" x="1" y="3"><feFlood flood-opacity="0" result="BackgroundImageFix"/><feColorMatrix in="SourceAlpha" type="matrix" values="0 0 0 0 0 0 0 0 0 0 0 0 0 0 0 0 0 0 127 0"/><feOffset/><feColorMatrix type="matrix" values="0 0 0 0 0 0 0 0 0 0 0 0 0 0 0 0 0 0 0.06 0"/><feBlend in2="BackgroundImageFix" mode="normal" result="effect1_dropShadow"/><feBlend in="SourceGraphic" in2="effect1_dropShadow" mode="normal" result="shape"/></filter><mask id="c" height="43" maskUnits="userSpaceOnUse" width="59" x="1" y="3"><rect fill="#fff" height="42.5" rx="4.24286" width="59" x="1" y="3"/></mask><rect fill="#fff" height="42.5" rx="4.24286" width="59" x="1" y="3"/><g mask="url(#c)"><g filter="url(#a)"><path clip-rule="evenodd" d="m1 45.5h59v-17h-59z" fill="#009543" fill-rule="evenodd"/></g><g filter="url(#b)"><path clip-rule="evenodd" d="m1 20h59v-17h-59z" fill="#d21034" fill-rule="evenodd"/></g><path clip-rule="evenodd" d="m1 28.5h59v-8.5h-59z" fill="#262626" fill-rule="evenodd"/><path clip-rule="evenodd" d="m1 3 28.0952 21.25-28.0952 21.25z" fill="#262626" fill-rule="evenodd"/><path d="m-.395284 39.887v-31.27389l21.469184 15.63689z" stroke="#fdce12" stroke-width="2.82857"/><path clip-rule="evenodd" d="m20.6667 25.6667h39.3334v-2.8333h-39.3334z" fill="#fdce12" fill-rule="evenodd"/></g></svg>

<svg width="61" height="53" viewBox="0 0 61 53" fill="none" xmlns="http://www.w3.org/2000/svg">
<rect x="1" y="3" width="59" height="42.5" rx="4.24286" fill="white"/>
<mask id="mask0" mask-type="alpha" maskUnits="userSpaceOnUse" x="1" y="3" width="59" height="43">
<rect x="1" y="3" width="59" height="42.5" rx="4.24286" fill="white"/>
</mask>
<g mask="url(#mask0)">
<g filter="url(#filter0_d)">
<path fill-rule="evenodd" clip-rule="evenodd" d="M1 45.5H60V28.5H1V45.5Z" fill="#009543"/>
</g>
<g filter="url(#filter1_d)">
<path fill-rule="evenodd" clip-rule="evenodd" d="M1 20H60V3H1V20Z" fill="#D21034"/>
</g>
<path fill-rule="evenodd" clip-rule="evenodd" d="M1 28.5H60V20H1V28.5Z" fill="#262626"/>
<path fill-rule="evenodd" clip-rule="evenodd" d="M1 3L29.0952 24.25L1 45.5V3Z" fill="#262626"/>
<path d="M-0.395284 39.887V8.61311L21.0739 24.25L-0.395284 39.887Z" stroke="#FDCE12" stroke-width="2.82857"/>
<path fill-rule="evenodd" clip-rule="evenodd" d="M20.6667 25.6667H60.0001V22.8334H20.6667V25.6667Z" fill="#FDCE12"/>
</g>
<defs>
<filter id="filter0_d" x="1" y="28.5" width="59" height="17" filterUnits="userSpaceOnUse" color-interpolation-filters="sRGB">
<feFlood flood-opacity="0" result="BackgroundImageFix"/>
<feColorMatrix in="SourceAlpha" type="matrix" values="0 0 0 0 0 0 0 0 0 0 0 0 0 0 0 0 0 0 127 0"/>
<feOffset/>
<feColorMatrix type="matrix" values="0 0 0 0 0 0 0 0 0 0 0 0 0 0 0 0 0 0 0.06 0"/>
<feBlend mode="normal" in2="BackgroundImageFix" result="effect1_dropShadow"/>
<feBlend mode="normal" in="SourceGraphic" in2="effect1_dropShadow" result="shape"/>
</filter>
<filter id="filter1_d" x="1" y="3" width="59" height="17" filterUnits="userSpaceOnUse" color-interpolation-filters="sRGB">
<feFlood flood-opacity="0" result="BackgroundImageFix"/>
<feColorMatrix in="SourceAlpha" type="matrix" values="0 0 0 0 0 0 0 0 0 0 0 0 0 0 0 0 0 0 127 0"/>
<feOffset/>
<feColorMatrix type="matrix" values="0 0 0 0 0 0 0 0 0 0 0 0 0 0 0 0 0 0 0.06 0"/>
<feBlend mode="normal" in2="BackgroundImageFix" result="effect1_dropShadow"/>
<feBlend mode="normal" in="SourceGraphic" in2="effect1_dropShadow" result="shape"/>
</filter>
</defs>
</svg>
